src/icons/person.icon.svg

<svg width="24px" height="24px" viewBox="0 0 24 24" version="1.1" xmlns="http://www.w3.org/2000/svg" xmlns:xlink="http://www.w3.org/1999/xlink">
    <!-- Generator: Sketch 49.2 (51160) - http://www.bohemiancoding.com/sketch -->
    <title>IconPerson</title>
    <desc>Created with Sketch.</desc>
    <defs></defs>
    <g id="Page-1" stroke="none" stroke-width="1" fill="none" fill-rule="evenodd">
        <g id="IconPerson">
            <path d="M12,6.1375 C13.305,6.1375 14.363,7.1945 14.363,8.5005 C14.363,9.8045 13.305,10.8625 12,10.8625 C10.695,10.8625 9.637,9.8045 9.637,8.5005 C9.637,7.1945 10.695,6.1375 12,6.1375 M12,16.2625 C15.341,16.2625 18.863,17.9055 18.863,18.6255 L18.863,18.8625 L5.137,18.8625 L5.137,18.6255 C5.137,17.9055 8.659,16.2625 12,16.2625 M12,4.0005 C9.514,4.0005 7.5,6.0135 7.5,8.5005 C7.5,10.9865 9.514,13.0005 12,13.0005 C14.486,13.0005 16.5,10.9865 16.5,8.5005 C16.5,6.0135 14.486,4.0005 12,4.0005 M12,14.1255 C8.996,14.1255 3,15.6325 3,18.6255 L3,21.0005 L21,21.0005 L21,18.6255 C21,15.6325 15.004,14.1255 12,14.1255" id="Fill-1" fill="currentColor"></path>
        </g>
    </g>
</svg>

<svg xmlns="http://www.w3.org/2000/svg" viewBox="0 0 24 24"><path d="M12 6.138a2.362 2.362 0 11.001 4.724A2.362 2.362 0 0112 6.138m0 10.125c3.341 0 6.863 1.642 6.863 2.362v.238H5.137v-.238c0-.72 3.522-2.363 6.863-2.363M12 4a4.498 4.498 0 00-4.5 4.5A4.5 4.5 0 0012 13a4.5 4.5 0 004.5-4.5C16.5 6.014 14.486 4 12 4m0 10.125c-3.004 0-9 1.508-9 4.5V21h18v-2.375c0-2.992-5.996-4.5-9-4.5" fill="currentColor" fill-rule="evenodd"/></svg>
